icons/issue-reopened-16.svg

<svg xmlns="http://www.w3.org/2000/svg" width="16" height="16" viewBox="0 0 16 16"><path d="M5.029 2.217a6.5 6.5 0 019.437 5.11.75.75 0 101.492-.154 8 8 0 00-14.315-4.03L.427 1.927A.25.25 0 000 2.104V5.75A.25.25 0 00.25 6h3.646a.25.25 0 00.177-.427L2.715 4.215a6.491 6.491 0 012.314-1.998zM1.262 8.169a.75.75 0 00-1.22.658 8.001 8.001 0 0014.315 4.03l1.216 1.216a.25.25 0 00.427-.177V10.25a.25.25 0 00-.25-.25h-3.646a.25.25 0 00-.177.427l1.358 1.358a6.501 6.501 0 01-11.751-3.11.75.75 0 00-.272-.506z"/><path d="M9.06 9.06a1.5 1.5 0 11-2.12-2.12 1.5 1.5 0 012.12 2.12z"/></svg>

<svg xmlns="http://www.w3.org/2000/svg" width="16" height="16" viewBox="0 0 16 16">
  <defs/>
  <path d="M5.029,2.217 A6.5 6.5 0 0 1 14.466,7.327 A0.75 0.75 0 1 0 15.958,7.173 A8 8 0 0 0 1.643,3.143 L0.427,1.927 A0.25 0.25 0 0 0 0,2.104 L0,5.75 A0.25 0.25 0 0 0 0.25,6 L3.896,6 A0.25 0.25 0 0 0 4.073,5.573 L2.715,4.215 A6.491 6.491 0 0 1 5.029,2.217 Z M1.262,8.169 A0.75 0.75 0 0 0 0.042,8.827 A8.001 8.001 0 0 0 14.357,12.857 L15.573,14.073 A0.25 0.25 0 0 0 16,13.896 L16,10.25 A0.25 0.25 0 0 0 15.75,10 L12.104,10 A0.25 0.25 0 0 0 11.927,10.427 L13.285,11.785 A6.501 6.501 0 0 1 1.534,8.675 A0.75 0.75 0 0 0 1.262,8.169 Z"/>
  <path d="M9.06,9.06 A1.5 1.5 0 1 1 6.94,6.94 A1.5 1.5 0 0 1 9.06,9.06 Z"/>
</svg>
